public/images/broadcasters/rts.svg

<svg height="26" viewBox="0 0 73 26" width="73" xmlns="http://www.w3.org/2000/svg"><path d="m79.5808325 28.0521554c-1.3350826 1.7883842-4.4291193 1.3508971-5.6508671 1.4017677l1.6977535-6.2706493s1.039279 0 2.5228299.0316528c2.359628.0474793 2.833367 2.958408 1.4302837 4.8372288m44.2027915-2.3886572c3.96558-.5041842 7.124218 1.5249875 7.124218 1.5249875l2.092158-8.9046159c-2.958035-1.3215051-8.857105-1.6267287-11.981742-.8975834-4.78159 1.1168922-7.654624 3.3936342-9.872584 6.1971695-.0238.0305223-.048734.0553924-.073668.0836538l1.519818-6.3147371-23.2075418-.0135655-1.2047476 5.0554072s-1.542485-5.0395807-8.7041034-5.0576681c-5.6599338-.0146959-12.8578193 0-12.8578193 0l-6.6176119 24.9514639h10.5015913l1.7804878-6.7793552s3.4963749.093828 6.4260763-.0361747c2.9263014-.1300026 6.542811-1.2141116 8.5907687-4.2335643 1.6172859-2.3852659 1.6376861-5.6375929 1.6376861-5.6375929h5.0807937l-4.4959868 16.7737324h10.3417895l4.4880534-16.8212116 5.141994.02487s-1.316949 2.7244032-1.670553 5.6443757c-1.195681 9.8553308 8.562435 12.3084241 14.235969 11.6866724 2.344895-.2566139 5.455932-.9699328 5.455932-.9699328l2.102358-8.860528s-3.695844 1.3248965-6.45781 1.3848108c-2.7631.0599142-5.019593-1.2152421-4.694323-3.7632939.340004-2.6441407 2.567031-4.6891389 5.318797-5.0373198" fill="#fff" fill-rule="evenodd" transform="translate(-60 -17)"/></svg>

<?xml version="1.0" encoding="UTF-8"?>
<svg width="73px" height="26px" viewBox="0 0 73 26" version="1.1" xmlns="http://www.w3.org/2000/svg" xmlns:xlink="http://www.w3.org/1999/xlink">
    <!-- Generator: Sketch 52.5 (67469) - http://www.bohemiancoding.com/sketch -->
    <title>Fill 1</title>
    <desc>Created with Sketch.</desc>
    <g id="Welcome" stroke="none" stroke-width="1" fill="none" fill-rule="evenodd">
        <g id="Home" transform="translate(-60.000000, -17.000000)" fill="#FFFFFF">
            <path d="M79.5808325,28.0521554 C78.2457499,29.8405396 75.1517132,29.4030525 73.9299654,29.4539231 L75.6277189,23.1832738 C75.6277189,23.1832738 76.6669979,23.1832738 78.1505488,23.2149266 C80.5101768,23.2624059 80.9839158,26.1733346 79.5808325,28.0521554 M123.783624,25.6634982 C127.749204,25.159314 130.907842,27.1884857 130.907842,27.1884857 L133,18.2838698 C130.041965,16.9623647 124.142895,16.6571411 121.018258,17.3862864 C116.236668,18.5031786 113.363634,20.7799206 111.145674,23.5834559 C111.121874,23.6139782 111.09694,23.6388483 111.072006,23.6671097 L112.591824,17.3523726 L89.3842822,17.3388071 L88.1795346,22.3942143 C88.1795346,22.3942143 86.6370496,17.3546336 79.4754312,17.3365462 C73.8154974,17.3218503 66.6176119,17.3365462 66.6176119,17.3365462 L60,42.2880101 L70.5015913,42.2880101 L72.2820791,35.5086549 C72.2820791,35.5086549 75.778454,35.6024829 78.7081554,35.4724802 C81.6344568,35.3424776 85.2509664,34.2583686 87.2989241,31.2389159 C88.91621,28.85365 88.9366102,25.601323 88.9366102,25.601323 L94.0174039,25.601323 L89.5214171,42.3750554 L99.8632066,42.3750554 L104.35126,25.5538438 L109.493254,25.5787138 C109.493254,25.5787138 108.176305,28.303117 107.822701,31.2230895 C106.62702,41.0784203 116.385136,43.5315136 122.05867,42.9097619 C124.403565,42.653148 127.514602,41.9398291 127.514602,41.9398291 L129.61696,33.0793011 C129.61696,33.0793011 125.921116,34.4041976 123.15915,34.4641119 C120.39605,34.5240261 118.139557,33.2488698 118.464827,30.700818 C118.804831,28.0566773 121.031858,26.0116791 123.783624,25.6634982" id="Fill-1"/>
        </g>
    </g>
</svg>
